X:1
T:Title
%%score ( 1 2 ) 3
L:1/8
Q:1/4=90
M:2/4
K:G
V:1 treble nm="Grand Piano, Soprano"
V:2 treble 
V:3 bass nm="Choir Pad, Bass"
V:1
 [B,D]/[B,D]/[DG] [DG][DG] | [DG][DG] [B,D][DG] | [GB][Fd] [Gd][Ad] | [Fd] [Gd]3 | %4
w: By~Logan~Oskin * * * *||||
 [GB]/[GB]/[Ac] [Fc][Fc] | [FA][GB] [GB][DG] | [GB] [FA]3- | [FA]4 | [B,D]/[B,D]/[DG] [DG][DG] | %9
w: |||||
 [DG][DG] [B,D][DG] | [GB][Fd] [Gd][Ad] | [Fd] [Gd]3 | [Gd]/[Gd]/[Ge] [Ge][Ec] | [Ge] [Fd]2 [DF]- | %14
w: |||||
 [DF] [DG]3- | [DG]4 | z d3- | d z z2 | z d3- | d z z2 | [Gd]/[Gd]/[Ge] [Gd][Fc] | %21
w: |||||||
 [GB][FA] [FA][FA] | z c3- | c4 | D/D/[DG] [DG][DG] | [DG][DG] [B,D][DG] | [GB][Fd] [Gd][Ad] | %27
w: ||||||
 [Fd] [Gd]3 | [Gd]/[Gd]/[Ge] [Ge][Ec] | [Ge] [Fd]2 [DF]- | [DF] [DG]3- | [DG]4 |] %32
w: |||||
V:2
 x4 | x4 | x4 | x4 | x4 | x4 | x4 | x4 | x4 | x4 | x4 | x4 | x4 | x4 | x4 | x4 | [Gd]/[Gd]/G FG | %17
 F .[Gd]3 | [Gd]/d/F GA | F .[Gd]3 | x4 | x4 | [GB]F FA | G .F3 | x4 | x4 | x4 | x4 | x4 | x4 | %30
 x4 | x4 |] %32
V:3
 G,/G,/[G,B,] [G,B,][G,B,] | [G,B,][G,B,] G,[G,B,] | [G,D][A,D] [G,B,][F,D] | [D,C] [G,B,]3 | %4
 [G,D]/[G,D]/[D,D] [D,A,][D,A,] | [D,D][G,D] [G,D][G,B,] | [G,D] [D,D]3- | [D,D]4 | %8
 G,/G,/[G,B,] [G,B,][G,B,] | [G,B,][G,B,] G,[G,B,] | [G,D][A,D] [G,B,][F,D] | [D,C] [G,B,]3 | %12
 [G,B,]/[G,B,]/[C,C] [C,C][C,G,] | [C,C] [D,A,]2 [D,C]- | [D,C] [G,B,]3- | [G,B,]4 | %16
 [G,B,]/[G,B,]/[G,B,] [A,C][B,D] | [A,C] .[G,B,]3 | [G,B,]/[G,B,]/[D,A,] [E,C][F,C] | %19
 [D,C] .[G,B,]3 | [G,B,]/[G,B,]/C [B,D][A,D] | [G,D][D,D] [D,D][D,D] | [D,D][D,A,] [D,A,][F,D] | %23
 [A,D] .[D,A,]3 | [F,A,]/[F,A,]/[G,B,] [G,B,][G,B,] | [G,B,][G,B,] G,[G,B,] | %26
 [G,D][A,D] [G,B,][F,D] | [D,C] [G,B,]3 | [G,B,]/[G,B,]/[C,C] [C,C][C,G,] | [C,C] [D,A,]2 [D,C]- | %30
 [D,C] [G,B,]3- | [G,B,]4 |] %32

